X:3
T:Carolan's Welcome
T:Carolan's Air
T:O'Carolan's Welcom
T:O'Carolan's Welcome
T:O'Carolon's Welcome
M:3/4
L:1/8
R:waltz
K:Amin
cB |: A2 cd e2 | A2 cd e2 | dedcBA | B2 G2 E2 |
c3 B A2 | d3 c B2 | ce E2 G2 | A4 cB |
A2 cd e2 | A2 cd e2 | dedcBA | B2 G2 E2 |
g3  f e2 | a3 g ed | cedcBc | [1 A4 cB :| [2 A4 A2 |
|: e2 ab c'2 | e2 ab c'2 | c'bagab | c'2 e2 e2 |
f2 afed | e2 gedc | d2 e2 g2 | a6 |
ageg a2 | gede g2 | edcdec | d2 B2 G2 |
c3 B A2 | d3 c B2 | ce E2 G2 | [1 A4 A2 :| [2 A6 |]
W:Variation from ceolachan
K: Gmaj
G2 Bc d2 | G2 Bc d2 | cd cB AG | F/G/A F2 D2 |
B3 A G2 | c3 B A2 | Bd D2 F2 | G4 BA |
G2 Bc d2 | G2 Bc d2 | cd cB AG | F/G/A F2 D2 |
f3 e d2 | g3f dc | Bd cB AB | G4 :|
d2 ga b2 | d2 ga b2 | ba gf ga | b2 d2 d2 |
e2 ge dc | d2 fd cB | c2 d2 f2 | g4 g2 |
gf df g2 | fd cd f2 | dc Bc dB | c2 A2 F2 |
B3 A G2 | c3B A2 | Bd D2 F2 | G4 :|
W:Variation from ceolachan
K: E Minor
E2 GA B2 | E2 GA B2 | A>B AG FE | D/E/F D2 B,2 |
G2 GF E2 | A2 AG F2 | GB B,2 ^E2 | E4 GF |
E2 G>A B2 | E2 GA BG | AB AG FE | D3 C B,2 |
d2 dc B2 | e2 ed BA | G/A/B AG FG | E4 ||
B2 ef g2 | B2 ef g2 | gf ed ef | g2 B2 B2 |
c2 ec BA | B2 dB AG | A3 B d2 | e4 e2 |
ed Bd e2 | dB AB d2 | B>A GA B/A/G | A2 F2 D2 |
G3 F E2 | A2 AG F2 | GB B,2 ^E2 | E4 ||

